icons/file-media-24.svg

<svg xmlns="http://www.w3.org/2000/svg" width="24" height="24" viewBox="0 0 24 24"><path d="M21.75 21.5H2.25A1.75 1.75 0 0 1 .5 19.75V4.25c0-.966.784-1.75 1.75-1.75h19.5c.966 0 1.75.784 1.75 1.75v15.5a1.75 1.75 0 0 1-1.75 1.75ZM2.25 4a.25.25 0 0 0-.25.25v15.5c0 .138.112.25.25.25h3.178L14 10.977a1.749 1.749 0 0 1 2.506-.032L22 16.44V4.25a.25.25 0 0 0-.25-.25ZM22 19.75v-1.19l-6.555-6.554a.248.248 0 0 0-.18-.073.247.247 0 0 0-.178.077L7.497 20H21.75a.25.25 0 0 0 .25-.25ZM10.5 9.25a3.25 3.25 0 1 1-6.5 0 3.25 3.25 0 0 1 6.5 0Zm-1.5 0a1.75 1.75 0 1 0-3.501.001A1.75 1.75 0 0 0 9 9.25Z"/></svg>

<?xml version="1.0" encoding="utf-8"?>
<svg xmlns="http://www.w3.org/2000/svg" width="24" height="24" viewBox="0 0 24 24">
  <path d="M 21.75 21.5 L 2.25 21.5 C 1.284 21.5 0.5 20.716 0.5 19.75 L 0.5 4.25 C 0.5 3.284 1.284 2.5 2.25 2.5 L 21.75 2.5 C 22.716 2.5 23.5 3.284 23.5 4.25 L 23.5 19.75 C 23.5 20.716 22.716 21.5 21.75 21.5 Z M 2.25 4 C 2.112 4 2 4.112 2 4.25 L 2 19.75 C 2 19.888 2.112 20 2.25 20 L 2.428 20 L 14 10.977 C 14.678 10.263 15.81 10.249 16.506 10.945 L 22 16.44 L 22 4.25 C 22 4.112 21.888 4 21.75 4 L 2.25 4 Z M 22 19.75 L 22 18.56 L 15.445 12.006 C 15.397 11.958 15.332 11.932 15.265 11.933 C 15.198 11.933 15.133 11.961 15.087 12.01 L 4.497 20 L 21.75 20 C 21.888 20 22 19.888 22 19.75 Z M 10.5 9.25 C 10.5 11.752 7.792 13.316 5.625 12.065 C 4.619 11.484 4 10.411 4 9.25 C 4 6.748 6.708 5.184 8.875 6.435 C 9.881 7.016 10.5 8.089 10.5 9.25 Z M 9 9.25 C 9 7.902 7.541 7.061 6.374 7.735 C 5.832 8.048 5.499 8.626 5.499 9.251 C 5.499 10.599 6.958 11.44 8.125 10.766 C 8.667 10.453 9 9.875 9 9.25 Z"/>
</svg>
